X: 10054
T: MISS POLE'S REEL
R: reel
B: K\"ohler's Violin Repository, v.1, 1885 p.5 #4
F: http://www.archive.org/details/klersviolinrepos01edin
Z: 2011 John Chambers <jc:trillian.mit.edu>
M: C|
L: 1/8
K: Bb
|: B2(Bd) cBBd | fgfd dccd | B2(Bd) cBBd | fgfd fBBz :|
|: f2(fb) bgga | bgfd dccd | f2(fb) bggb | fdcf dBBz :|

%%sep 2 1 500

